static/img/kroki/ccfac4f858c1bbf506f395ca0cfe1234.svg

<?xml version="1.0" encoding="us-ascii" standalone="no"?><svg xmlns="http://www.w3.org/2000/svg" xmlns:xlink="http://www.w3.org/1999/xlink" contentStyleType="text/css" height="767px" preserveAspectRatio="none" style="width:255px;height:767px;" version="1.1" viewBox="0 0 255 767" width="255px" zoomAndPan="magnify"><defs/><g><!--class kubernetes_config_map--><g id="elem_kubernetes_config_map"><rect codeLine="23" fill="#3D176E" height="74.0859" id="kubernetes_config_map" rx="2.5" ry="2.5" style="stroke:#000D19;stroke-width:0.5;" width="241" x="7" y="686.43"/><ellipse cx="22" cy="706.3245" fill="#ADD1B2" rx="11" ry="11" style="stroke:#181818;stroke-width:1.0;"/><path d="M24.9688,711.9652 Q24.3906,712.262 23.75,712.4027 Q23.1094,712.5589 22.4063,712.5589 Q19.9063,712.5589 18.5781,710.9183 Q17.2656,709.262 17.2656,706.137 Q17.2656,703.012 18.5781,701.3558 Q19.9063,699.6995 22.4063,699.6995 Q23.1094,699.6995 23.75,699.8558 Q24.4063,700.012 24.9688,700.3089 L24.9688,703.0277 Q24.3438,702.4495 23.75,702.1839 Q23.1563,701.9027 22.5313,701.9027 Q21.1875,701.9027 20.5,702.9808 Q19.8125,704.0433 19.8125,706.137 Q19.8125,708.2308 20.5,709.3089 Q21.1875,710.3714 22.5313,710.3714 Q23.1563,710.3714 23.75,710.1058 Q24.3438,709.8245 24.9688,709.2464 L24.9688,711.9652 Z " fill="#000000"/><text fill="#D9B8FF" font-family="Helvetica" font-size="17" lengthAdjust="spacing" textLength="199" x="41" y="712.2098">kubernetes_config_map</text><line style="stroke:#000D19;stroke-width:0.5;" x1="8" x2="247" y1="726.2191" y2="726.2191"/><text fill="#D9B8FF" font-family="sans-serif" font-size="14" font-weight="bold" lengthAdjust="spacing" textLength="34" x="18" y="748.2142">data</text><text fill="#D9B8FF" font-family="sans-serif" font-size="14" lengthAdjust="spacing" textLength="171" x="52" y="748.2142">: dictionary[string, string]</text></g><!--class kubernetes_resource--><g id="elem_kubernetes_resource"><rect codeLine="26" fill="#3D176E" height="126.6797" id="kubernetes_resource" rx="2.5" ry="2.5" style="stroke:#000D19;stroke-width:0.5;" width="239" x="8" y="438.75"/><ellipse cx="33.35" cy="458.6445" fill="#ADD1B2" rx="11" ry="11" style="stroke:#181818;stroke-width:1.0;"/><path d="M36.3188,464.2852 Q35.7406,464.582 35.1,464.7227 Q34.4594,464.8789 33.7563,464.8789 Q31.2563,464.8789 29.9281,463.2383 Q28.6156,461.582 28.6156,458.457 Q28.6156,455.332 29.9281,453.6758 Q31.2563,452.0195 33.7563,452.0195 Q34.4594,452.0195 35.1,452.1758 Q35.7563,452.332 36.3188,452.6289 L36.3188,455.3477 Q35.6938,454.7695 35.1,454.5039 Q34.5063,454.2227 33.8813,454.2227 Q32.5375,454.2227 31.85,455.3008 Q31.1625,456.3633 31.1625,458.457 Q31.1625,460.5508 31.85,461.6289 Q32.5375,462.6914 33.8813,462.6914 Q34.5063,462.6914 35.1,462.4258 Q35.6938,462.1445 36.3188,461.5664 L36.3188,464.2852 Z " fill="#000000"/><text fill="#D9B8FF" font-family="Helvetica" font-size="17" lengthAdjust="spacing" textLength="174" x="54.65" y="464.5298">kubernetes_resource</text><line style="stroke:#000D19;stroke-width:0.5;" x1="9" x2="246" y1="478.5391" y2="478.5391"/><text fill="#D9B8FF" font-family="sans-serif" font-size="14" font-weight="bold" lengthAdjust="spacing" textLength="46" x="19" y="500.5342">labels</text><text fill="#D9B8FF" font-family="sans-serif" font-size="14" lengthAdjust="spacing" textLength="171" x="65" y="500.5342">: dictionary[string, string]</text><text fill="#D9B8FF" font-family="sans-serif" font-size="14" font-weight="bold" lengthAdjust="spacing" textLength="90" x="19" y="526.8311">namespace</text><text fill="#D9B8FF" font-family="sans-serif" font-size="14" lengthAdjust="spacing" textLength="48" x="109" y="526.8311">: string</text><text fill="#D9B8FF" font-family="sans-serif" font-size="14" font-weight="bold" lengthAdjust="spacing" textLength="138" x="19" y="553.1279">resource_version</text><text fill="#D9B8FF" font-family="sans-serif" font-size="14" lengthAdjust="spacing" textLength="48" x="157" y="553.1279">: string</text></g><!--class resource--><g id="elem_resource"><rect codeLine="31" fill="#3D176E" height="310.7578" id="resource" rx="2.5" ry="2.5" style="stroke:#000D19;stroke-width:0.5;" width="227" x="14" y="7"/><ellipse cx="82.75" cy="26.8945" fill="#ADD1B2" rx="11" ry="11" style="stroke:#181818;stroke-width:1.0;"/><path d="M85.7188,32.5352 Q85.1406,32.832 84.5,32.9727 Q83.8594,33.1289 83.1563,33.1289 Q80.6563,33.1289 79.3281,31.4883 Q78.0156,29.832 78.0156,26.707 Q78.0156,23.582 79.3281,21.9258 Q80.6563,20.2695 83.1563,20.2695 Q83.8594,20.2695 84.5,20.4258 Q85.1563,20.582 85.7188,20.8789 L85.7188,23.5977 Q85.0938,23.0195 84.5,22.7539 Q83.9063,22.4727 83.2813,22.4727 Q81.9375,22.4727 81.25,23.5508 Q80.5625,24.6133 80.5625,26.707 Q80.5625,28.8008 81.25,29.8789 Q81.9375,30.9414 83.2813,30.9414 Q83.9063,30.9414 84.5,30.6758 Q85.0938,30.3945 85.7188,29.8164 L85.7188,32.5352 Z " fill="#000000"/><text fill="#D9B8FF" font-family="Helvetica" font-size="17" lengthAdjust="spacing" textLength="71" x="108.25" y="32.7798">resource</text><line style="stroke:#000D19;stroke-width:0.5;" x1="15" x2="240" y1="46.7891" y2="46.7891"/><text fill="#D9B8FF" font-family="sans-serif" font-size="14" font-weight="bold" lengthAdjust="spacing" textLength="29" x="25" y="68.7842">age</text><text fill="#D9B8FF" font-family="sans-serif" font-size="14" lengthAdjust="spacing" textLength="66" x="54" y="68.7842">: duration</text><text fill="#D9B8FF" font-family="sans-serif" font-size="14" font-weight="bold" lengthAdjust="spacing" textLength="43" x="25" y="95.0811">atime</text><text fill="#D9B8FF" font-family="sans-serif" font-size="14" lengthAdjust="spacing" textLength="70" x="68" y="95.0811">: datetime</text><text fill="#D9B8FF" font-family="sans-serif" font-size="14" font-weight="bold" lengthAdjust="spacing" textLength="43" x="25" y="121.3779">ctime</text><text fill="#D9B8FF" font-family="sans-serif" font-size="14" lengthAdjust="spacing" textLength="70" x="68" y="121.3779">: datetime</text><text fill="#D9B8FF" font-family="sans-serif" font-size="14" font-weight="bold" lengthAdjust="spacing" textLength="14" x="25" y="147.6748">id</text><text fill="#D9B8FF" font-family="sans-serif" font-size="14" lengthAdjust="spacing" textLength="48" x="39" y="147.6748">: string</text><text fill="#D9B8FF" font-family="sans-serif" font-size="14" font-weight="bold" lengthAdjust="spacing" textLength="33" x="25" y="173.9717">kind</text><text fill="#D9B8FF" font-family="sans-serif" font-size="14" lengthAdjust="spacing" textLength="48" x="58" y="173.9717">: string</text><text fill="#D9B8FF" font-family="sans-serif" font-size="14" font-weight="bold" lengthAdjust="spacing" textLength="90" x="25" y="200.2686">last_access</text><text fill="#D9B8FF" font-family="sans-serif" font-size="14" lengthAdjust="spacing" textLength="66" x="115" y="200.2686">: duration</text><text fill="#D9B8FF" font-family="sans-serif" font-size="14" font-weight="bold" lengthAdjust="spacing" textLength="90" x="25" y="226.5654">last_update</text><text fill="#D9B8FF" font-family="sans-serif" font-size="14" lengthAdjust="spacing" textLength="66" x="115" y="226.5654">: duration</text><text fill="#D9B8FF" font-family="sans-serif" font-size="14" font-weight="bold" lengthAdjust="spacing" textLength="48" x="25" y="252.8623">mtime</text><text fill="#D9B8FF" font-family="sans-serif" font-size="14" lengthAdjust="spacing" textLength="70" x="73" y="252.8623">: datetime</text><text fill="#D9B8FF" font-family="sans-serif" font-size="14" font-weight="bold" lengthAdjust="spacing" textLength="43" x="25" y="279.1592">name</text><text fill="#D9B8FF" font-family="sans-serif" font-size="14" lengthAdjust="spacing" textLength="48" x="68" y="279.1592">: string</text><text fill="#D9B8FF" font-family="sans-serif" font-size="14" font-weight="bold" lengthAdjust="spacing" textLength="34" x="25" y="305.4561">tags</text><text fill="#D9B8FF" font-family="sans-serif" font-size="14" lengthAdjust="spacing" textLength="171" x="59" y="305.4561">: dictionary[string, string]</text></g><!--reverse link kubernetes_resource to kubernetes_config_map--><g id="link_kubernetes_resource_kubernetes_config_map"><path codeLine="43" d="M127.5,583.67 C127.5,622.67 127.5,653.5 127.5,686.21 " fill="none" id="kubernetes_resource-backto-kubernetes_config_map" style="stroke:#FFAF37;stroke-width:2.0;"/><polygon fill="none" points="127.5,565.67,121.5,583.67,133.5,583.67,127.5,565.67" style="stroke:#FFAF37;stroke-width:2.0;"/></g><!--reverse link resource to kubernetes_resource--><g id="link_resource_kubernetes_resource"><path codeLine="44" d="M127.5,335.9 C127.5,378.46 127.5,404.23 127.5,438.31 " fill="none" id="resource-backto-kubernetes_resource" style="stroke:#FFAF37;stroke-width:2.0;"/><polygon fill="none" points="127.5,317.9,121.5,335.9,133.5,335.9,127.5,317.9" style="stroke:#FFAF37;stroke-width:2.0;"/></g><!--SRC=[XPDDIyD048Rl-HKBteA5Lj5QyQ85qKiHzIPIfhkJT6co6sOdbVhntzrjhEIhxIdXVP-TTsQoMMg50lE2DoB7V87a8hVIfW22NDmIsO-fpIo9aoI1v7pSDk-juQF0378K3vYjaRM4Dl6wr79bq3bnLhFkGAvIigLHLNacCCvRQBX6JJDmxfQPzA9ah3MZ9ekh96cJxQ8dvseqliGEPaaX_I73uL2D9ctaQDJ1kV-95_s9ObHVsimoTjhiH6ofWrq6ejPaPz2TlxV79r1AcrHSrBJdgYSoI0tzPGdAVWGwWSpLOnmZeULDWTFEL3YvKicu5txS1qSoh4wiIdzJ3JAwkRGcqUayXq9yHN6iW26EhuNIahKrG9itvw-7IKz5zNoFVhf529qjIUAsH0OBpDoH8d5i_ERyZPGOo4hswgxIVEr_9N-sPkvo6s6GRi-haY141OLrNcd06Dwz9diqhHh1VejDmMVn7AJqVrOhOUkKHQZLSlAUd31dep13wewkk6-vDz-3mQ3_sqNxePqJ_G80]--></g></svg>

<svg xmlns="http://www.w3.org/2000/svg" width="255" height="767" viewBox="0 0 255 767"><rect width="241" height="74.086" x="7" y="686.43" fill="#3D176E" rx="2.5" ry="2.5" style="stroke:#000d19;stroke-width:.5"/><circle cx="22" cy="706.324" r="11" fill="#ADD1B2" style="stroke:#181818;stroke-width:1"/><path d="M24.969 711.965q-.578.297-1.219.438-.64.156-1.344.156-2.5 0-3.828-1.64-1.312-1.657-1.312-4.782t1.312-4.781q1.328-1.657 3.828-1.657.703 0 1.344.157.656.156 1.219.453v2.719q-.625-.579-1.219-.844-.594-.281-1.219-.281-1.343 0-2.031 1.078-.687 1.062-.687 3.156t.687 3.172q.688 1.062 2.031 1.062.625 0 1.219-.265.594-.282 1.219-.86z"/><text x="41" y="712.21" fill="#D9B8FF" font-family="Helvetica" font-size="17" textLength="199">kubernetes_config_map</text><path d="M8 726.219h239" style="stroke:#000d19;stroke-width:.5"/><text x="18" y="748.214" fill="#D9B8FF" font-family="sans-serif" font-size="14" font-weight="bold" textLength="34">data</text><text x="52" y="748.214" fill="#D9B8FF" font-family="sans-serif" font-size="14" textLength="171">: dictionary[string, string]</text><rect width="239" height="126.68" x="8" y="438.75" fill="#3D176E" rx="2.5" ry="2.5" style="stroke:#000d19;stroke-width:.5"/><circle cx="33.35" cy="458.644" r="11" fill="#ADD1B2" style="stroke:#181818;stroke-width:1"/><path d="M36.319 464.285q-.578.297-1.219.438-.64.156-1.344.156-2.5 0-3.828-1.64-1.312-1.657-1.312-4.782t1.312-4.781q1.328-1.656 3.828-1.656.703 0 1.344.156.656.156 1.219.453v2.719q-.625-.579-1.219-.844-.594-.281-1.219-.281-1.343 0-2.031 1.078-.687 1.062-.687 3.156t.687 3.172q.688 1.062 2.031 1.062.625 0 1.219-.265.594-.281 1.219-.86z"/><text x="54.65" y="464.53" fill="#D9B8FF" font-family="Helvetica" font-size="17" textLength="174">kubernetes_resource</text><path d="M9 478.539h237" style="stroke:#000d19;stroke-width:.5"/><text x="19" y="500.534" fill="#D9B8FF" font-family="sans-serif" font-size="14" font-weight="bold" textLength="46">labels</text><text x="65" y="500.534" fill="#D9B8FF" font-family="sans-serif" font-size="14" textLength="171">: dictionary[string, string]</text><text x="19" y="526.831" fill="#D9B8FF" font-family="sans-serif" font-size="14" font-weight="bold" textLength="90">namespace</text><text x="109" y="526.831" fill="#D9B8FF" font-family="sans-serif" font-size="14" textLength="48">: string</text><text x="19" y="553.128" fill="#D9B8FF" font-family="sans-serif" font-size="14" font-weight="bold" textLength="138">resource_version</text><text x="157" y="553.128" fill="#D9B8FF" font-family="sans-serif" font-size="14" textLength="48">: string</text><rect width="227" height="310.758" x="14" y="7" fill="#3D176E" rx="2.5" ry="2.5" style="stroke:#000d19;stroke-width:.5"/><circle cx="82.75" cy="26.895" r="11" fill="#ADD1B2" style="stroke:#181818;stroke-width:1"/><path d="M85.719 32.535q-.578.297-1.219.438-.64.156-1.344.156-2.5 0-3.828-1.64-1.312-1.657-1.312-4.782t1.312-4.781q1.328-1.656 3.828-1.656.703 0 1.344.156.656.156 1.219.453v2.719q-.625-.578-1.219-.844-.594-.281-1.219-.281-1.344 0-2.031 1.078-.687 1.062-.687 3.156t.687 3.172q.688 1.062 2.031 1.062.625 0 1.219-.265.594-.281 1.219-.86z"/><text x="108.25" y="32.78" fill="#D9B8FF" font-family="Helvetica" font-size="17" textLength="71">resource</text><path d="M15 46.789h225" style="stroke:#000d19;stroke-width:.5"/><text x="25" y="68.784" fill="#D9B8FF" font-family="sans-serif" font-size="14" font-weight="bold" textLength="29">age</text><text x="54" y="68.784" fill="#D9B8FF" font-family="sans-serif" font-size="14" textLength="66">: duration</text><text x="25" y="95.081" fill="#D9B8FF" font-family="sans-serif" font-size="14" font-weight="bold" textLength="43">atime</text><text x="68" y="95.081" fill="#D9B8FF" font-family="sans-serif" font-size="14" textLength="70">: datetime</text><text x="25" y="121.378" fill="#D9B8FF" font-family="sans-serif" font-size="14" font-weight="bold" textLength="43">ctime</text><text x="68" y="121.378" fill="#D9B8FF" font-family="sans-serif" font-size="14" textLength="70">: datetime</text><text x="25" y="147.675" fill="#D9B8FF" font-family="sans-serif" font-size="14" font-weight="bold" textLength="14">id</text><text x="39" y="147.675" fill="#D9B8FF" font-family="sans-serif" font-size="14" textLength="48">: string</text><text x="25" y="173.972" fill="#D9B8FF" font-family="sans-serif" font-size="14" font-weight="bold" textLength="33">kind</text><text x="58" y="173.972" fill="#D9B8FF" font-family="sans-serif" font-size="14" textLength="48">: string</text><text x="25" y="200.269" fill="#D9B8FF" font-family="sans-serif" font-size="14" font-weight="bold" textLength="90">last_access</text><text x="115" y="200.269" fill="#D9B8FF" font-family="sans-serif" font-size="14" textLength="66">: duration</text><text x="25" y="226.565" fill="#D9B8FF" font-family="sans-serif" font-size="14" font-weight="bold" textLength="90">last_update</text><text x="115" y="226.565" fill="#D9B8FF" font-family="sans-serif" font-size="14" textLength="66">: duration</text><text x="25" y="252.862" fill="#D9B8FF" font-family="sans-serif" font-size="14" font-weight="bold" textLength="48">mtime</text><text x="73" y="252.862" fill="#D9B8FF" font-family="sans-serif" font-size="14" textLength="70">: datetime</text><text x="25" y="279.159" fill="#D9B8FF" font-family="sans-serif" font-size="14" font-weight="bold" textLength="43">name</text><text x="68" y="279.159" fill="#D9B8FF" font-family="sans-serif" font-size="14" textLength="48">: string</text><text x="25" y="305.456" fill="#D9B8FF" font-family="sans-serif" font-size="14" font-weight="bold" textLength="34">tags</text><text x="59" y="305.456" fill="#D9B8FF" font-family="sans-serif" font-size="14" textLength="171">: dictionary[string, string]</text><path fill="none" d="M127.5 583.67v102.54m0-120.54-6 18h12zm0-229.77v102.41m0-120.41-6 18h12z" style="stroke:#ffaf37;stroke-width:2"/></svg>
